X:113
T:Valse \`a Bouffard
R:Waltz
O:France
M:3/4
C:Patrick Bouffard
K:D
F4E2|D2F2D2|A2A^GAB|A6|\
B4c2|d2c2B2|1 A2ABAB|G2F2E2:|2 d2e2c2|d6||
F2A2d2|F2A2d2|G2B2d2|G2B2d2|A2c2e2|A2c2e2\
|1 d2dcde|f2d2A2:|2 d2dcfe|d6||
